X:2424
T:Caliope House
M:12/8
L:1/8
C:Dave Richardson
N:Usually played in key of E, so capo at 2nd fret
K:D
aaa faa eaa def|~g2g fgf e2e edB|AAA A2F A2B d2e|
1f2f fed e3 efg:|2 f2 f efe d3||
K:D
A|dAA fAA eAA fed|Bee ~e2d e2d BdB|A2A A2F A2B d2e|[1 f2f fed e3 efg:|
[2f2f efed3 ||


